Origami/22x22/apps/appimagekit-gravit-designer.svg

<svg width="22" height="22" version="1.1" viewBox="0 0 22 22" xmlns="http://www.w3.org/2000/svg">
 <path d="m11 1c-0.506947 0.00259-1.012963 0.043722-1.513672 0.1230469-0.936654 0.8653117-7.6397255 7.5211091-8.3476561 8.2900391-0.00894 0.05624-0.017408 0.112559-0.02539 0.168945 0.2013365-0.164545 0.5061884-0.425524 0.8544922-0.7412105 0.1717075-0.155627 0.3834753-0.339514 0.4707031-0.40918 0.087227-0.069666 0.2484123-0.209018 0.3574219-0.30957 0.3027536-0.2792665 1.01873-0.913755 1.2285149-1.0888675 0.1029165-0.0859075 0.5028225-0.437621 0.888672-0.78125 0.3858495-0.3436285 0.8846345-0.783043 1.1083985-0.9765625 0.223764-0.193519 0.687835-0.6155725 1.03125-0.9375 0.6623705-0.6209261 2.7082765-2.4353439 2.9355465-2.6035155 0.07424-0.054938 0.143271-0.092089 0.153321-0.082031 0.02221 0.022227-0.106694 0.238486-0.561524 0.9404297-0.190849 0.294539-0.936 1.449612-1.65625 2.566406-0.720251 1.1167938-1.614106 2.5022958-1.986328 3.0791013-0.3722215 0.576806-1.1948545 1.852188-1.828125 2.833985s-1.4595743 2.261533-1.8359373 2.844726c-0.231131 0.35815-0.4052521 0.640875-0.5292969 0.850586 1.4361673 3.520157 4.7440562 5.921443 8.5359622 6.196289 0.285579 0.0033-0.160324-0.01925 0.285579 0.0033 1.249694-4.692798 2.291705-12.78811 5.042186-18.538096 0.115839-0.2421665-0.309459-0.2956093-0.254355-0.4173517-1.356255-0.6613762-2.844597-1.007254-4.353513-1.0117188z" style="fill:#c63166"/>
 <path d="M 1.01075,11.209 A 10,10 0 0 0 1,11.5 10,10 0 0 0 11,21.5 10,10 0 0 0 21,11.5 10,10 0 0 0 20.9895,11.291 10,10 0 0 1 11,21 10,10 0 0 1 1.011,11.209 Z" style="opacity:.2"/>
 <path d="m10.38086 1.0361328a10 10 0 0 0 -0.641602 0.053711 10 10 0 0 1 0.641602 -0.053711z" style="fill:#d8d342"/>
 <path d="m9.480469 1.6289063a10 10 0 0 0 -0.6552735 0.1357422c-1.751954 1.6946883-6.7131301 6.62288-7.5576174 7.5166015a10 10 0 0 0 -0.1259766 0.62793c0.7137618-0.774545 7.39293-7.4055279 8.3388675-8.2802737zm0.661133 0.5234375c-0.01005-0.010058-0.07908 0.027093-0.153321 0.082031-0.22727 0.1681715-2.273176 1.9825895-2.9355465 2.6035155-0.343415 0.3219275-0.807486 0.743981-1.03125 0.9375-0.223764 0.1935197-0.722549 0.6329342-1.1083985 0.9765627-0.3858495 0.343629-0.7857555 0.6953425-0.888672 0.78125-0.2097847 0.1751125-0.9257614 0.809601-1.2285155 1.0888675-0.1090097 0.100552-0.2701946 0.239904-0.3574219 0.30957-0.0872279 0.0696665-0.2989957 0.2535535-0.4707031 0.4091805-0.3483038 0.315685-0.6531558 0.576667-0.8544922 0.74121a10 10 0 0 0 -0.1035157 1.098633 10 10 0 0 0 0.7363282 3.583008c-5.4e-4 9e-4 -0.00142 3e-3 -0.00196 0.0039a10 10 0 0 0 0.016602 0.03516 10 10 0 0 0 9.75e-4 1e-3 10 10 0 0 0 0.1162109 0.248047c0.1117977-0.18398 0.2229643-0.367399 0.3955123-0.634771 0.3763631-0.583194 1.2026671-1.86293 1.8359375-2.844727 0.6332705-0.981796 1.4559035-2.257178 1.828125-2.833984 0.372222-0.5768055 1.266077-1.9623075 1.986328-3.0791015 0.72025-1.116794 1.4654015-2.271867 1.6562505-2.5664061 0.45483-0.7019437 0.583738-0.9182027 0.561523-0.9404297z" style="opacity:.2"/>
 <path d="m9.480469 1.1289063a10 10 0 0 0 -8.3388675 8.2802737c0.7137618-0.774545 7.392931-7.4055279 8.3388675-8.2802737z" style="fill:#b8da6c"/>
 <path d="m1.1416015 9.40918c-4.122e-4 4.47e-4 -0.00252 0.0035-0.00293 0.0039a10 10 0 0 0 -0.022461 0.146484 10 10 0 0 1 0.02539 -0.150391z" style="fill:#d8d342"/>
 <path d="m14.244141 1.5595703v0.00196a10 10 0 0 1 0.251953 0.083008 10 10 0 0 0 -0.251953 -0.084961z" style="fill:#d8d342"/>
 <path d="m14.496094 1.6445313a10 10 0 0 1 0.763671 0.3271484 10 10 0 0 0 -0.763671 -0.3271484z" style="fill:#d8d342"/>
 <path d="m15.259765 1.9716797a10 10 0 0 1 0.09277 0.041015l1e-3 -9.75e-4a10 10 0 0 0 -0.09375 -0.040039z" style="fill:#d8d342"/>
 <path d="m10.141602 1.6523438c-0.01005-0.010058-0.07908 0.027093-0.153321 0.082031-0.22727 0.1681715-2.273176 1.9825896-2.9355465 2.6035155-0.343415 0.3219275-0.807486 0.743981-1.03125 0.9375-0.223764 0.1935197-0.722549 0.6329342-1.1083985 0.9765627-0.3858495 0.343629-0.7857555 0.6953425-0.888672 0.78125-0.2097848 0.1751125-0.9257614 0.809601-1.2285155 1.0888675-0.1090097 0.100552-0.2701946 0.239904-0.3574219 0.30957-0.0872279 0.069666-0.2989957 0.253553-0.4707031 0.40918-0.3483038 0.3156855-0.6531558 0.5766665-0.8544922 0.7412105a10 10 0 0 0 -0.1132813 1.417969 10 10 0 0 0 1.2832031 4.889648v-0.02344a10 10 0 0 1 -0.0898437 -0.151364 10 10 0 0 1 -0.1904297 -0.395508 10 10 0 0 1 -0.2587891 -0.551758c0.1240449-0.209711 0.2981659-0.492436 0.5292969-0.850586 0.3763631-0.583193 1.2026671-1.862929 1.8359375-2.844726 0.6332705-0.981797 1.4559035-2.2571785 1.828125-2.833985 0.372222-0.5768055 1.266077-1.9623075 1.986328-3.0791015 0.72025-1.116794 1.465401-2.271867 1.65625-2.566406 0.45483-0.7019437 0.583739-0.9182027 0.561524-0.9404297z" style="fill:#b8da6c"/>
 <path d="m20.93457 12.040039-8.905273 8.905273a10 10 0 0 0 8.905273 -8.905273z" style="fill:#778b3c"/>
 <path d="m20.93457 12.040039-8.905273 8.905273a10 10 0 0 0 0.591797 -0.0918l8.234375-8.234374a10 10 0 0 0 0.0791 -0.579102z" style="opacity:.2"/>
 <path d="m15.352539 2.0126953c-0.05488 0.1212713-0.09442 0.212561-0.209961 0.4541016-2.750481 5.7499866-4.484333 11.9443-4.770507 17.039062-0.02619 0.466354-0.06144 1.039284-0.07813 1.272461l-0.01367 0.181641c0.239352 0.021991 0.479417 0.035346 0.719729 0.040039 0.343811-5e-4 0.687366-0.01878 1.029297-0.05469l8.905273-8.905271c0.039871-0.345307 0.061711-0.692458 0.06543-1.040039-0.006044-3.830082-2.199202-7.3202494-5.647461-8.9873047zm-3.323242 18.932617c4.692241-0.491338 8.402763-4.195347 8.902343-8.886718-0.49958 4.691371-4.210102 8.39538-8.902343 8.886718zm-1.749023 0.01465v0.0039z" style="fill:#eddf36"/>
 <path d="m11 1a10 10 0 0 0 -10 10 10 10 0 0 0 0.01075 0.209 10 10 0 0 1 9.989 -9.709 10 10 0 0 1 9.9895 9.791 10 10 0 0 0 0.0105 -0.291 10 10 0 0 0 -10 -10z" style="fill:#ffffff;opacity:.2"/>
</svg>

<svg xmlns="http://www.w3.org/2000/svg" width="22" height="22" version="1.1" viewBox="0 0 22 22">
 <path style="fill:#c63166" d="M 11,1 C 10.493053,1.00259 9.987037,1.043722 9.486328,1.1230469 8.549674,1.9883586 1.8466025,8.644156 1.1386719,9.413086 1.1297319,9.469326 1.1212639,9.525645 1.1132819,9.582031 1.3146184,9.417486 1.6194703,9.156507 1.9677741,8.8408205 2.1394816,8.6851935 2.3512494,8.5013065 2.4384772,8.4316405 2.5257042,8.3619745 2.6868895,8.2226225 2.7958991,8.1220705 3.0986527,7.842804 3.8146291,7.2083155 4.024414,7.033203 4.1273305,6.9472955 4.5272365,6.595582 4.913086,6.251953 5.2989355,5.9083245 5.7977205,5.46891 6.0214845,5.2753905 6.2452485,5.0818715 6.7093195,4.659818 7.0527345,4.3378905 7.715105,3.7169644 9.761011,1.9025466 9.988281,1.734375 c 0.07424,-0.054938 0.143271,-0.092089 0.153321,-0.082031 0.02221,0.022227 -0.106694,0.238486 -0.561524,0.9404297 -0.190849,0.294539 -0.936,1.449612 -1.65625,2.566406 C 7.203577,6.2759735 6.309722,7.6614755 5.9375,8.238281 5.5652785,8.815087 4.7426455,10.090469 4.109375,11.072266 c -0.6332705,0.981797 -1.4595743,2.261533 -1.8359373,2.844726 -0.231131,0.35815 -0.4052521,0.640875 -0.5292969,0.850586 1.4361673,3.520157 4.7440562,5.921443 8.5359622,6.196289 0.285579,0.0033 -0.160324,-0.01925 0.285579,0.0033 C 11.815376,16.274369 12.857387,8.179057 15.607868,2.4290705 15.723707,2.186904 15.298409,2.1334612 15.353513,2.0117188 13.997258,1.3503426 12.508916,1.0044648 11,1 Z"/>
 <path style="opacity:0.2" d="M 1.01075,11.209 A 10,10 0 0 0 1,11.5 10,10 0 0 0 11,21.5 10,10 0 0 0 21,11.5 10,10 0 0 0 20.9895,11.291 10,10 0 0 1 11,21 10,10 0 0 1 1.011,11.209 Z"/>
 <path style="fill:#d8d342" d="M 10.38086,1.0361328 A 10,10 0 0 0 9.739258,1.0898438 10,10 0 0 1 10.38086,1.0361328 Z"/>
 <path style="opacity:0.2" d="M 9.480469,1.6289063 A 10,10 0 0 0 8.8251955,1.7646485 C 7.0732415,3.4593368 2.1120654,8.3875285 1.2675781,9.28125 A 10,10 0 0 0 1.1416015,9.90918 C 1.8553633,9.134635 8.5345315,2.5036521 9.480469,1.6289063 Z m 0.661133,0.5234375 c -0.01005,-0.010058 -0.07908,0.027093 -0.153321,0.082031 -0.22727,0.1681715 -2.273176,1.9825895 -2.9355465,2.6035155 -0.343415,0.3219275 -0.807486,0.743981 -1.03125,0.9375 C 5.7977205,5.96891 5.2989355,6.4083245 4.913086,6.751953 4.5272365,7.095582 4.1273305,7.4472955 4.024414,7.533203 3.8146293,7.7083155 3.0986526,8.342804 2.7958985,8.6220705 2.6868888,8.7226225 2.5257039,8.8619745 2.4384766,8.9316405 2.3512487,9.001307 2.1394809,9.185194 1.9677735,9.340821 1.6194697,9.656506 1.3146177,9.917488 1.1132813,10.082031 a 10,10 0 0 0 -0.1035157,1.098633 10,10 0 0 0 0.7363282,3.583008 c -5.4e-4,9e-4 -0.00142,0.003 -0.00196,0.0039 a 10,10 0 0 0 0.016602,0.03516 10,10 0 0 0 9.75e-4,10e-4 10,10 0 0 0 0.1162109,0.248047 C 1.9897194,14.867799 2.100886,14.68438 2.273434,14.417008 2.6497971,13.833814 3.4761011,12.554078 4.1093715,11.572281 4.742642,10.590485 5.565275,9.315103 5.9374965,8.738297 6.3097185,8.1614915 7.2035735,6.7759895 7.9238245,5.6591955 8.6440745,4.5424015 9.389226,3.3873285 9.580075,3.0927894 10.034905,2.3908457 10.163813,2.1745867 10.141598,2.1523597 Z"/>
 <path style="fill:#b8da6c" d="M 9.480469,1.1289063 A 10,10 0 0 0 1.1416015,9.40918 C 1.8553633,8.634635 8.5345325,2.0036521 9.480469,1.1289063 Z"/>
 <path style="fill:#d8d342" d="m 1.1416015,9.40918 c -4.122e-4,4.47e-4 -0.00252,0.0035 -0.00293,0.0039 a 10,10 0 0 0 -0.022461,0.146484 10,10 0 0 1 0.02539,-0.150391 z"/>
 <path style="fill:#d8d342" d="m 14.244141,1.5595703 0,0.00196 a 10,10 0 0 1 0.251953,0.083008 10,10 0 0 0 -0.251953,-0.084961 z"/>
 <path style="fill:#d8d342" d="M 14.496094,1.6445313 A 10,10 0 0 1 15.259765,1.9716797 10,10 0 0 0 14.496094,1.6445313 Z"/>
 <path style="fill:#d8d342" d="m 15.259765,1.9716797 a 10,10 0 0 1 0.09277,0.041015 c 0,0 0.001,-9.75e-4 0.001,-9.75e-4 a 10,10 0 0 0 -0.09375,-0.040039 z"/>
 <path style="fill:#b8da6c" d="m 10.141602,1.6523438 c -0.01005,-0.010058 -0.07908,0.027093 -0.153321,0.082031 -0.22727,0.1681715 -2.273176,1.9825896 -2.9355465,2.6035155 -0.343415,0.3219275 -0.807486,0.743981 -1.03125,0.9375 C 5.7977205,5.46891 5.2989355,5.9083245 4.913086,6.251953 4.5272365,6.595582 4.1273305,6.9472955 4.024414,7.033203 3.8146292,7.2083155 3.0986526,7.842804 2.7958985,8.1220705 2.6868888,8.2226225 2.5257039,8.3619745 2.4384766,8.4316405 2.3512487,8.5013065 2.1394809,8.6851935 1.9677735,8.8408205 1.6194697,9.156506 1.3146177,9.417487 1.1132813,9.582031 A 10,10 0 0 0 1,11 10,10 0 0 0 2.2832031,15.889648 l 0,-0.02344 A 10,10 0 0 1 2.1933594,15.714844 10,10 0 0 1 2.0029297,15.319336 10,10 0 0 1 1.7441406,14.767578 C 1.8681855,14.557867 2.0423065,14.275142 2.2734375,13.916992 2.6498006,13.333799 3.4761046,12.054063 4.109375,11.072266 4.7426455,10.090469 5.5652785,8.8150875 5.9375,8.238281 6.309722,7.6614755 7.203577,6.2759735 7.923828,5.1591795 c 0.72025,-1.116794 1.465401,-2.271867 1.65625,-2.566406 0.45483,-0.7019437 0.583739,-0.9182027 0.561524,-0.9404297 z"/>
 <path style="fill:#778b3c" d="m 20.93457,12.040039 -8.905273,8.905273 a 10,10 0 0 0 8.905273,-8.905273 z"/>
 <path style="opacity:0.2" d="m 20.93457,12.040039 -8.905273,8.905273 a 10,10 0 0 0 0.591797,-0.0918 l 8.234375,-8.234374 a 10,10 0 0 0 0.0791,-0.579102 z"/>
 <path style="fill:#eddf36" d="m 15.352539,2.0126953 c -0.05488,0.1212713 -0.09442,0.212561 -0.209961,0.4541016 -2.750481,5.7499866 -4.484333,11.9443001 -4.770507,17.0390621 -0.02619,0.466354 -0.06144,1.039284 -0.07813,1.272461 l -0.01367,0.181641 C 10.519623,20.981952 10.759688,20.995307 11,21 c 0.343811,-5e-4 0.687366,-0.01878 1.029297,-0.05469 L 20.93457,12.040039 C 20.974441,11.694732 20.996281,11.347581 21,11 20.993956,7.169918 18.800798,3.6797506 15.352539,2.0126953 Z M 12.029297,20.945312 c 4.692241,-0.491338 8.402763,-4.195347 8.902343,-8.886718 -0.49958,4.691371 -4.210102,8.39538 -8.902343,8.886718 z m -1.749023,0.01465 c 0,0 0,-0.0037 0,0.0039 z"/>
 <path style="opacity:0.2;fill:#ffffff" d="m 11,1 a 10,10 0 0 0 -10,10 10,10 0 0 0 0.01075,0.209 10,10 0 0 1 9.989,-9.709 10,10 0 0 1 9.9895,9.791 10,10 0 0 0 0.0105,-0.291 10,10 0 0 0 -10,-10 z"/>
</svg>
